X: 68
T:Liberton Pipe Band
M:4/4
L:1/8
R:Reel
K:D % 2 sharps
AB/A/ FA dA f2|fe/f/ ge d/c/d/e/ fa|AB/A/ FA dA f2|fe/f/ gc ed d2:||!
ef/e/ ce ac e2|ef/e/ dB fe c2|ef/e/ ce ac e2|ef/e/ dB BA A2|!
Ac ce ef/e/ c2|ef/e/ dB Ac cB|Ac ce ef/e/ c2|ef/e/ dB BA A2|!
||: af/f/ fa ef/e/ c2|ef/e/ dB fe ce|af/f/ fa ef/e/ c2|ef/e/ dB BA A2:||
% <A name="D1X069"></A>

